src/pos-icons/zodiac-cancer.svg

<svg height="24" viewBox="0 0 24 24" width="24" xmlns="http://www.w3.org/2000/svg"><path d="m12 4c-5.5 0-10 3.58-10 8 0 2.12 1.65 3.87 3.76 4h.24a4 4 0 0 0 4-4 4 4 0 0 0 -4-4h-.24c1.68-1.59 3.93-2.45 6.24-2.4 1.77-.02 3.5.47 5 1.4l1.25-1.25c-1.87-1.17-4.04-1.78-6.25-1.75m-6 6a2 2 0 0 1 2 2c0 1.11-.92 2-2 2-1.04 0-1.9-.78-2-1.8 0-.13 0-.27 0-.4.1-1.03.97-1.8 2-1.8m12.24-2h-.24a4 4 0 0 0 -4 4 4 4 0 0 0 4 4h.24c-1.68 1.59-3.93 2.45-6.24 2.4-1.77.02-3.5-.47-5-1.4l-1.24 1.24c1.87 1.17 4.03 1.76 6.24 1.76 5.5 0 10-3.58 10-8 0-2.12-1.65-3.87-3.76-4m-.24 6a2 2 0 0 1 -2-2c0-1.11.92-2 2-2 1.04 0 1.9.78 2 1.8v.4c-.1 1.03-.97 1.8-2 1.8z"/></svg>

<?xml version="1.0" encoding="UTF-8"?><!DOCTYPE svg PUBLIC "-//W3C//DTD SVG 1.1//EN" "http://www.w3.org/Graphics/SVG/1.1/DTD/svg11.dtd"><svg xmlns="http://www.w3.org/2000/svg" xmlns:xlink="http://www.w3.org/1999/xlink" version="1.1" id="mdi-zodiac-cancer" width="24" height="24" viewBox="0 0 24 24"><path d="M12,4C6.5,4 2,7.58 2,12C2,14.12 3.65,15.87 5.76,16H6A4,4 0 0,0 10,12A4,4 0 0,0 6,8H5.76C7.44,6.41 9.69,5.55 12,5.6C13.77,5.58 15.5,6.07 17,7L18.25,5.75C16.38,4.58 14.21,3.97 12,4M6,10A2,2 0 0,1 8,12C8,13.11 7.08,14 6,14C4.96,14 4.1,13.22 4,12.2C4,12.07 4,11.93 4,11.8C4.1,10.77 4.97,10 6,10M18.24,8H18A4,4 0 0,0 14,12A4,4 0 0,0 18,16H18.24C16.56,17.59 14.31,18.45 12,18.4C10.23,18.42 8.5,17.93 7,17L5.76,18.24C7.63,19.41 9.79,20 12,20C17.5,20 22,16.42 22,12C22,9.88 20.35,8.13 18.24,8M18,14A2,2 0 0,1 16,12C16,10.89 16.92,10 18,10C19.04,10 19.9,10.78 20,11.8C20,11.93 20,12.07 20,12.2C19.9,13.23 19.03,14 18,14Z" /></svg>
